X: 100
T: the Silver Spire
M: 4/4
L: 1/8
Z: 2006 John Chambers <jc:trillian.mit.edu>
R: Reel
K: D
|:"D"D2FE DFAc | "D"d2de fdAF | "G"G2BG "D"F2AF | "Em"GEFD "A7"ECB,A, \
| "D"D2FE DFAc | "D"d2de fdAF | "G"G2BG "D"F2DF | "A7"EDCE "D"D2 :|
|:"A"A,B,CD EFGE | "D"FDEF GABc | "Bm"dcBA Bcde | "E7"~f2gf "A7"e3c \
| "D"d2fd "A"c2ec | "G"BcdB "D"AFDF | "G"G2BG "D"F2DF | "A7"EDCE "D"D2 :|

%%sep 2 1 500
%%sep 1 1 500

